src/icons/solid/communication/phone.svg

<svg width="24" height="24" viewBox="0 0 24 24" fill="none" xmlns="http://www.w3.org/2000/svg">
<g clip-path="url(#clip0_4191_652)">
<path d="M21.2454 16.3782L20.6834 15.9016C19.867 15.1969 18.8808 14.3368 17.4281 14.5544C16.5162 14.6891 15.9648 15.2694 15.4877 15.7772C15.0741 16.2124 14.7136 16.5959 14.1834 16.6995C13.4836 16.8342 12.6989 16.2746 12.0203 15.7254C10.7585 14.7098 9.69812 13.5492 8.78621 12.1606C8.53172 11.7668 7.85309 10.7098 8.10758 9.81865C8.20301 9.48705 8.58474 9.20725 8.94526 8.93782C9.09371 8.82383 9.24216 8.72021 9.3588 8.61658L9.62389 8.39896C10.0905 8.03627 10.61 7.63212 10.7797 6.93782C11.119 5.58031 10.3025 4.34715 9.6557 3.35233L9.54967 3.19689C8.93466 2.25389 8.11818 1 6.84575 1C6.72911 1 6.60187 1.01036 6.48523 1.03109C5.91263 1.13472 5.5097 1.48705 5.17038 1.78756L4.67201 2.20207C4.3539 2.46114 4.0358 2.72021 3.81312 2.96891C1.9787 4.98964 1.50154 8.057 2.54069 10.9896C3.27234 13.0518 4.60839 15.1451 6.49583 17.228C7.84249 18.6995 9.68751 20.5544 12.1157 21.8187C13.1867 22.3782 14.5015 22.9482 16.1663 23H16.4632C17.9795 23 19.3262 22.6373 20.4396 21.9223C20.7789 21.7047 21.0864 21.4249 21.3727 21.1554C21.5635 20.9793 21.6908 20.8653 21.818 20.7513L21.9135 20.6684C22.3694 20.285 22.9314 19.8187 22.995 19.0518C23.0799 17.8808 22.0619 17.0415 21.2348 16.3782H21.2454Z" fill="#3C3B44"/>
</g>
<defs>
<clipPath id="clip0_4191_652">
<rect width="24" height="24" fill="white"/>
</clipPath>
</defs>
</svg>

<svg xmlns="http://www.w3.org/2000/svg" width="24" height="24" fill="none" viewBox="0 0 24 24"><g clip-path="url(#a)"><path fill="currentColor" d="m21.245 16.378-.562-.476c-.816-.705-1.802-1.565-3.255-1.348-.912.135-1.463.715-1.94 1.223-.414.435-.774.819-1.305.923-.7.134-1.484-.425-2.163-.975a15.2 15.2 0 0 1-3.234-3.564c-.254-.394-.933-1.451-.678-2.342.095-.332.477-.612.837-.881.149-.114.297-.218.414-.321l.265-.218c.466-.363.986-.767 1.156-1.461.339-1.358-.477-2.59-1.124-3.586l-.106-.155C8.935 2.254 8.118 1 6.846 1c-.117 0-.244.01-.36.031-.573.104-.976.456-1.316.757l-.498.414c-.318.26-.636.518-.859.767-1.834 2.02-2.311 5.088-1.272 8.02.731 2.063 2.067 4.156 3.955 6.239 1.346 1.471 3.192 3.326 5.62 4.59 1.07.56 2.386 1.13 4.05 1.182h.297c1.517 0 2.863-.363 3.977-1.078.339-.217.646-.497.933-.767.19-.176.318-.29.445-.404l.095-.083c.456-.383 1.018-.85 1.082-1.616.085-1.171-.933-2.01-1.76-2.674z"/></g><defs><clipPath id="a"><path fill="currentColor" d="M0 0h24v24H0z"/></clipPath></defs></svg>
